app/javascript/images/logo-symbol-wordmark.svg

<?xml version="1.0" encoding="UTF-8"?>
<svg id="svg15" width="261" height="66" clip-rule="evenodd" stroke-linecap="round" stroke-linejoin="round" stroke-miterlimit="10" version="1.1" viewBox="0 0 196.4 93" xml:space="preserve" xmlns="http://www.w3.org/2000/svg" xmlns:vectornator="http://vectornator.io">

<g id="Layer-1" transform="matrix(.54253 0 0 .54253 -5.8789 -5.1923)" vectornator:layerName="Layer 1">
<path id="path1" d="m145.45 14.826c-0.551 7e-3 -70.011 0.868-70.562 0.875-1.7495 0.0222-3.084 1.584-2.8125 3.3125l12.625 80.281c0.0424 0.2704 0.1019 0.5338 0.2187 0.7815l1.875 4 9.25-24.625h12.344l13.75 36.625h-11.844l-1.781-6.031h-12.907l-1.75 6.031h-7.9375l-3.5625 9.937c-0.2027 0.566-0.1967 1.172-0.0312 1.75l2.6562 9.375-1.9375 11.344c-0.0816 0.474-0.0619 0.982 0.0938 1.438l4.9687 14.5c0.3703 1.083 1.3584 1.846 2.5 1.937l77.282 6.156 1.281 4.438c0.406 1.389 1.789 2.261 3.219 2.031l4.093-0.656c1.368-0.22 2.405-1.366 2.438-2.75l0.25-11.406 0.625-0.188 11.781 2.719c1.784 0.41 3.506-0.951 3.531-2.781 1e-3 -0.069 7e-3 -0.24 0.032-0.563 0.044-0.579 0.101-1.301 0.218-2.125 0.344-2.405 0.978-5.267 1.907-8.594 2.684-9.615 7.428-20.879 14.812-33.718 0.743-1.293 0.381-2.962-0.844-3.813l-3.468-2.406c-0.44-0.306-0.955-0.499-1.469-0.531l-3.719-11.938c-0.198-0.636-0.599-1.1663-1.156-1.5312l-3.938-2.5938-15.375-23.281 0.125-3.3438c0.028-0.8394-0.317-1.652-0.937-2.2187l-17.906-16.406-8.438-17.469c-0.269-0.5576-0.701-1.0263-1.25-1.3125l-11.031-5.75 5.125-6.9375c1.412-1.9098 0.031-4.5927-2.344-4.5625zm-21.5 64.625h34.375v9.0625h-11.531v27.563h-11.313v-27.563h-11.531zm43.781 0h11.313v27.625h18.656l0.887 9h-30.856zm-65.656 9.5-3.9999 13.156h8.0629z" fill="#ffc304" vectornator:layerName="Curve 36"/>
<path id="path2" d="m181.55 67.73-0.362 36.069 23.932 0.027z" fill="#fff" vectornator:layerName="Curve 34"/>
<path id="path3" d="m179.77 46.466h187v59.396h-187v-32.668z" fill="#fff" stroke="#000" stroke-linecap="butt" stroke-linejoin="round" stroke-width="2.6192" vectornator:layerName="Rectangle 25"/>
<g id="g10" fill="#131313" vectornator:layerName="Text 91">
<path id="path4" d="m193.55 84.159h4.615v4.8134h-4.615z"/>
<path id="path5" d="m216.51 89.425c-1.537 0-3.052-0.3617-4.545-1.0852-1.492-0.7236-2.72-1.9596-3.685-3.7081l3.437-2.261c0.844 1.1155 1.643 1.9219 2.396 2.4193 0.754 0.4974 1.734 0.7461 2.94 0.7461 0.964 0 1.71-0.2487 2.238-0.7461s0.791-1.1079 0.791-1.8314c0-0.4823-0.128-0.9044-0.384-1.2661-0.256-0.3618-0.701-0.701-1.334-1.0175s-1.537-0.6255-2.713-0.927c-2.171-0.5728-3.844-1.3264-5.02-2.261-1.175-0.9345-1.763-2.4117-1.763-4.4315 0-1.2059 0.301-2.3062 0.904-3.3011 0.603-0.9948 1.477-1.7937 2.623-2.3966 1.146-0.603 2.502-0.9044 4.07-0.9044 1.869 0 3.467 0.3843 4.793 1.1531 1.327 0.7687 2.367 1.6807 3.12 2.7358l-3.482 2.5775c-0.422-0.5426-1.04-1.0777-1.854-1.6053s-1.839-0.7913-3.075-0.7913c-0.753 0-1.447 0.211-2.08 0.633-0.633 0.4221-0.949 1.0099-0.949 1.7636s0.294 1.3641 0.881 1.8314c0.588 0.4673 1.666 0.8818 3.234 1.2436 2.653 0.633 4.537 1.4545 5.652 2.4644 1.116 1.0099 1.673 2.3439 1.673 4.002 0 1.447-0.369 2.6906-1.108 3.7306-0.738 1.0401-1.703 1.839-2.894 2.3967-1.19 0.5577-2.479 0.8365-3.866 0.8365z"/>
<path id="path6" d="m245.17 89.425c-2.231 0-4.198-0.4748-5.901-1.4244-1.704-0.9496-3.022-2.2836-3.957-4.0019-0.935-1.7184-1.402-3.7231-1.402-6.0143 0-2.3213 0.467-4.3411 1.402-6.0594 0.935-1.7184 2.253-3.0599 3.957-4.0246 1.703-0.9647 3.67-1.447 5.901-1.447 2.261 0 4.236 0.4823 5.924 1.447s3.007 2.3062 3.956 4.0246c0.95 1.7183 1.425 3.7381 1.425 6.0594 0 2.2912-0.475 4.2959-1.425 6.0143-0.949 1.7183-2.268 3.0523-3.956 4.0019s-3.663 1.4244-5.924 1.4244zm0-4.3411c2.02 0 3.64-0.6556 4.861-1.967s1.831-3.0222 1.831-5.1325c0-2.1404-0.61-3.8738-1.831-5.2003-1.221-1.3264-2.841-1.9896-4.861-1.9896-1.99 0-3.595 0.6557-4.816 1.967-1.221 1.3114-1.831 3.0373-1.831 5.1777s0.61 3.8663 1.831 5.1777 2.826 1.967 4.816 1.967z"/>
<path id="path7" d="m276.23 89.425c-2.261 0-4.22-0.4898-5.878-1.4696s-2.939-2.3288-3.844-4.0472c-0.904-1.7183-1.356-3.708-1.356-5.969s0.452-4.2507 1.356-5.969c0.905-1.7184 2.186-3.0674 3.844-4.0472 1.658-0.9797 3.617-1.4696 5.878-1.4696 2.141 0 4.085 0.5803 5.834 1.7409 1.748 1.1607 3.014 2.7057 3.798 4.6351l-4.296 1.8088c-0.482-1.2662-1.205-2.2233-2.17-2.8715-0.965-0.6481-2.065-0.9722-3.301-0.9722-1.809 0-3.316 0.6255-4.522 1.8766s-1.809 3.0071-1.809 5.2681 0.603 4.017 1.809 5.2681 2.713 1.8766 4.522 1.8766c1.236 0 2.336-0.324 3.301-0.9722 0.965-0.6481 1.688-1.6053 2.17-2.8714l4.296 1.8087c-0.814 1.9294-2.087 3.4744-3.821 4.6351-1.733 1.1606-3.67 1.7409-5.811 1.7409z"/>
<path id="path8" d="m300.6 88.972h-4.521v-22.067h4.521zm-5.2-28.85c0-0.8742 0.264-1.5902 0.792-2.1479 0.527-0.5578 1.243-0.8366 2.147-0.8366 0.875 0 1.583 0.2788 2.126 0.8366 0.542 0.5577 0.814 1.2737 0.814 2.1479 0 0.8441-0.272 1.545-0.814 2.1027-0.543 0.5577-1.251 0.8366-2.126 0.8366-0.904 0-1.62-0.2789-2.147-0.8366-0.528-0.5577-0.792-1.2586-0.792-2.1027z"/>
<path id="path9" d="m319.58 89.606c-1.718 0-3.195-0.3014-4.431-0.9044-1.236-0.6029-2.178-1.4696-2.826-2.6001-0.649-1.1305-0.973-2.4796-0.973-4.0472 0-1.447 0.332-2.7358 0.995-3.8663s1.613-2.0273 2.849-2.6906c1.236-0.6632 2.698-0.9948 4.386-0.9948 2.111 0 3.806 0.4748 5.088 1.4244 1.281 0.9496 2.178 2.2535 2.69 3.9115h-2.532v-5.6524c0-0.9346-0.317-1.7938-0.95-2.5776s-1.748-1.1757-3.346-1.1757c-0.844 0-1.771 0.098-2.781 0.2939-1.01 0.196-2.058 0.5351-3.143 1.0175l-1.356-3.4819c1.236-0.603 2.517-1.0552 3.843-1.3566 1.327-0.3015 2.623-0.4522 3.889-0.4522 1.899 0 3.467 0.3467 4.703 1.04 1.236 0.6934 2.156 1.6204 2.758 2.781 0.603 1.1607 0.905 2.4645 0.905 3.9116v14.787h-3.256l-1.13-4.0245 2.396-0.6783c-0.542 1.7786-1.507 3.1126-2.894 4.0019-1.387 0.8894-3.015 1.334-4.884 1.334zm0.814-4.0245c1.327 0 2.397-0.309 3.211-0.927 0.814-0.6181 1.221-1.4848 1.221-2.6002 0-1.1456-0.407-2.0198-1.221-2.6227-0.814-0.603-1.884-0.9044-3.211-0.9044-1.326 0-2.396 0.3014-3.21 0.9044-0.814 0.6029-1.221 1.4771-1.221 2.6227 0 1.1154 0.407 1.9821 1.221 2.6002 0.814 0.618 1.884 0.927 3.21 0.927z"/>
<path id="path10" d="m344.76 89.198c-0.783 0-1.477-0.1884-2.08-0.5652s-1.078-0.927-1.424-1.6505c-0.347-0.7235-0.52-1.6129-0.52-2.668v-26.137h4.431v24.554c0 0.9346 0.234 1.5676 0.701 1.8992 0.467 0.3317 1.003 0.4975 1.606 0.4975v3.6175c-0.392 0.1508-0.814 0.2638-1.267 0.3392-0.452 0.0754-0.934 0.113-1.447 0.113z"/>
</g>
<path id="path11" d="m198.1 90.553c-0.096 0.0443-0.173 0.0996-0.232 0.166s-0.104 0.1365-0.133 0.2102c-0.03 0.0738-0.044 4.0574-0.044 11.95 0 7.894 7e-3 11.862 0.022 11.907 0.015 0.044 0.059 0.114 0.133 0.21 0.073 0.096 0.158 0.166 0.254 0.21s0.196 0.067 0.299 0.067 0.203-0.023 0.299-0.067c0.043-0.02 0.24-0.19 0.592-0.512 0.436-0.399 1.109-1.028 2.019-1.889 1.645-1.557 2.512-2.368 2.6-2.434 0.045-0.034 0.089-0.067 0.133-0.1 0.694 1.608 1.387 3.216 2.081 4.825 1.386 3.216 2.098 4.846 2.135 4.89 0.037 0.045 0.1 0.093 0.188 0.144 0.089 0.052 0.196 0.081 0.321 0.089 0.126 7e-3 0.214 3e-3 0.266-0.011 0.051-0.015 0.616-0.27 1.693-0.764s1.66-0.8 1.748-0.918c0.089-0.118 0.137-0.247 0.144-0.388 7e-3 -0.14-0.719-1.799-2.18-4.979-0.73-1.59-1.461-3.179-2.191-4.769 1.214-0.103 2.427-0.207 3.641-0.31 2.427-0.207 3.695-0.336 3.806-0.387 0.111-0.052 0.192-0.107 0.244-0.166 0.051-0.059 0.092-0.126 0.121-0.199 0.03-0.074 0.041-0.177 0.033-0.31-7e-3 -0.133-0.029-0.233-0.066-0.299s-0.111-0.155-0.221-0.266c-0.111-0.11-2.933-2.747-8.465-7.9114-5.533-5.1638-8.358-7.79-8.476-7.8785-0.118-0.0886-0.251-0.1402-0.399-0.1549-0.147-0.0148-0.269 0-0.365 0.0442z" stroke="#fff" stroke-linecap="butt" stroke-linejoin="round" stroke-width="1.6192" vectornator:layerName="Curve 35"/>
<path id="path12" d="m97.958 63.196 0.8635-6.1097-4.5435-4.1751 6.0773-1.0668 2.567-5.6113 2.893 5.4505 6.129 0.7071-4.289 4.4353 1.221 6.0484-5.544-2.7094z" vectornator:layerName="Star 6"/>
<g id="g15" fill="#ffc804" vectornator:layerName="Group 1">
<path id="path13" d="m26.818 116.19c-2.1828 0-3.9137-0.64-5.1926-1.919-1.279-1.279-1.9185-3.265-1.9185-5.96v-17.548l0.972-5.6275h4.1439v23.277c0 0.955 0.2473 1.672 0.7418 2.149 0.4946 0.478 1.117 0.716 1.8674 0.716 0.5798 0 1.0914-0.034 1.5347-0.102 0.4434-0.068 0.8357-0.153 1.1767-0.256v4.758c-0.4434 0.137-0.9294 0.256-1.458 0.358-0.5287 0.103-1.1511 0.154-1.8674 0.154zm-10.948-20.72v-4.7067h14.274v4.7067z"/>
<path id="path14" d="m35.976 115.73v-34.839h5.116v34.839zm16.729 0v-15.962c0-1.7735-0.4008-2.9673-1.2023-3.5812s-1.7479-0.9208-2.8393-0.9208-2.1999 0.2216-3.3254 0.665-2.1317 1.0403-3.0184 1.7906c-0.8868 0.7504-1.5689 1.586-2.0464 2.5069l-0.6139-4.9114c0.955-1.0914 1.9952-2.0123 3.1207-2.7626s2.3192-1.3216 3.5812-1.7138c1.2619-0.3923 2.558-0.5884 3.8881-0.5884 1.7735 0 3.1719 0.2985 4.1951 0.8953 1.0232 0.5969 1.7735 1.3984 2.251 2.4045s0.7844 2.1402 0.9209 3.4021c0.1364 1.262 0.2046 2.558 0.2046 3.8883v14.887z"/>
<path id="path15" d="m74.601 116.24c-2.4215 0-4.5532-0.537-6.3949-1.612-1.8417-1.074-3.2742-2.583-4.2974-4.527s-1.5348-4.212-1.5348-6.804c0-2.627 0.5116-4.9118 1.5348-6.8559 1.0232-1.944 2.4557-3.4618 4.2974-4.5532s3.9734-1.6371 6.3949-1.6371c2.4557 0 4.6044 0.5457 6.4461 1.6371 1.8418 1.0914 3.2742 2.6092 4.2974 4.5532 1.0232 1.9441 1.5348 4.2289 1.5348 6.8559 0 0.238-0.0085 0.486-0.0256 0.741-0.017 0.256-0.0426 0.486-0.0767 0.691h-19.543v-4.4h15.859l-1.4325 2.968c0-2.593-0.5798-4.7242-1.7394-6.3954s-2.9331-2.5069-5.3206-2.5069c-2.1146 0-3.8028 0.6736-5.0648 2.0208-1.2619 1.3472-1.8929 3.1122-1.8929 5.2955v2.66c0 2.285 0.614 4.101 1.8418 5.448 1.2278 1.348 2.9331 2.021 5.1159 2.021 2.0123 0 3.5641-0.426 4.6555-1.279 1.0915-0.853 2.0464-1.91 2.865-3.172l3.8369 2.405c-1.1596 2.148-2.6517 3.76-4.4764 4.834-1.8247 1.075-4.1184 1.612-6.881 1.612z"/>
</g>
</g>
</svg>

<svg viewBox='0 0 391 60' className='logo logo--wordmark' role='img' style={{height:'100%',width:'100%'}}>
      <g transform='translate(0, -20) scale(0.8)'>
        <g id='Layer-1'>
          <path
            d='M145.446 14.8258C144.895 14.8328 75.4349 15.6938 74.8836 15.7008C73.1341 15.723 71.7996 17.2848 72.0711 19.0133L84.6961 99.2945C84.7385 99.5649 84.798 99.8283 84.9148 100.076L86.7898 104.076L96.0398 79.4508L108.384 79.4508L122.134 116.076L110.29 116.076L108.509 110.045L95.6023 110.045L93.8523 116.076L85.9148 116.076L82.3523 126.013C82.1496 126.579 82.1556 127.185 82.3211 127.763L84.9773 137.138L83.0398 148.482C82.9582 148.956 82.9779 149.464 83.1336 149.92L88.1023 164.42C88.4726 165.503 89.4607 166.266 90.6023 166.357L167.884 172.513L169.165 176.951C169.571 178.34 170.954 179.212 172.384 178.982L176.477 178.326C177.845 178.106 178.882 176.96 178.915 175.576L179.165 164.17L179.79 163.982L191.571 166.701C193.355 167.111 195.077 165.75 195.102 163.92C195.103 163.851 195.109 163.68 195.134 163.357C195.178 162.778 195.235 162.056 195.352 161.232C195.696 158.827 196.33 155.965 197.259 152.638C199.943 143.023 204.687 131.759 212.071 118.92C212.814 117.627 212.452 115.958 211.227 115.107L207.759 112.701C207.319 112.395 206.804 112.202 206.29 112.17L202.571 100.232C202.373 99.596 201.972 99.0657 201.415 98.7008L197.477 96.107L182.102 72.8258L182.227 69.482C182.255 68.6426 181.91 67.83 181.29 67.2633L163.384 50.857L154.946 33.3883C154.677 32.8307 154.245 32.362 153.696 32.0758L142.665 26.3258L147.79 19.3883C149.202 17.4785 147.821 14.7956 145.446 14.8258ZM123.946 79.4508L158.321 79.4508L158.321 88.5133L146.79 88.5133L146.79 116.076L135.477 116.076L135.477 88.5133L123.946 88.5133L123.946 79.4508ZM167.727 79.4508L179.04 79.4508L179.04 107.076L197.696 107.076L198.583 116.076L167.727 116.076L167.727 79.4508ZM102.071 88.9508L98.0711 102.107L106.134 102.107L102.071 88.9508Z'
            fill='#ffc304'
            fill-rule='nonzero'
            opacity='1'
            stroke='none'
          />
          <path
            d='M181.55 67.7303L181.188 103.799L205.12 103.826L181.55 67.7303Z'
            fill='#ffffff'
            fill-rule='nonzero'
            opacity='1'
            stroke='none'
          />
          <path
            d='M179.766 46.4657L366.771 46.4657L366.771 83.384L366.771 105.862L179.766 105.862L179.766 73.1942L179.766 46.4657Z'
            fill='#ffffff'
            fill-rule='nonzero'
            opacity='1'
            stroke='#000000'
            stroke-linecap='butt'
            stroke-linejoin='round'
            stroke-width='2.61915'
          />
          <g opacity='1'>
            <path
              d='M193.551 84.159L198.166 84.159L198.166 88.9724L193.551 88.9724L193.551 84.159Z'
              fill='#131313'
              fill-rule='nonzero'
              opacity='1'
              stroke='none'
            />
            <path
              d='M216.506 89.4246C214.969 89.4246 213.454 89.0629 211.961 88.3394C210.469 87.6158 209.241 86.3798 208.276 84.6313L211.713 82.3703C212.557 83.4858 213.356 84.2922 214.109 84.7896C214.863 85.287 215.843 85.5357 217.049 85.5357C218.013 85.5357 218.759 85.287 219.287 84.7896C219.815 84.2922 220.078 83.6817 220.078 82.9582C220.078 82.4759 219.95 82.0538 219.694 81.6921C219.438 81.3303 218.993 80.9911 218.36 80.6746C217.727 80.3581 216.823 80.0491 215.647 79.7476C213.476 79.1748 211.803 78.4212 210.627 77.4866C209.452 76.5521 208.864 75.0749 208.864 73.0551C208.864 71.8492 209.165 70.7489 209.768 69.754C210.371 68.7592 211.245 67.9603 212.391 67.3574C213.537 66.7544 214.893 66.453 216.461 66.453C218.33 66.453 219.928 66.8373 221.254 67.6061C222.581 68.3748 223.621 69.2868 224.374 70.3419L220.892 72.9194C220.47 72.3768 219.852 71.8417 219.038 71.3141C218.224 70.7865 217.199 70.5228 215.963 70.5228C215.21 70.5228 214.516 70.7338 213.883 71.1558C213.25 71.5779 212.934 72.1657 212.934 72.9194C212.934 73.6731 213.228 74.2835 213.815 74.7508C214.403 75.2181 215.481 75.6326 217.049 75.9944C219.702 76.6274 221.586 77.4489 222.701 78.4588C223.817 79.4687 224.374 80.8027 224.374 82.4608C224.374 83.9078 224.005 85.1514 223.266 86.1914C222.528 87.2315 221.563 88.0304 220.372 88.5881C219.182 89.1458 217.893 89.4246 216.506 89.4246Z'
              fill='#131313'
              fill-rule='nonzero'
              opacity='1'
              stroke='none'
            />
            <path
              d='M245.169 89.4246C242.938 89.4246 240.971 88.9498 239.268 88.0002C237.564 87.0506 236.246 85.7166 235.311 83.9983C234.376 82.2799 233.909 80.2752 233.909 77.984C233.909 75.6627 234.376 73.6429 235.311 71.9246C236.246 70.2062 237.564 68.8647 239.268 67.9C240.971 66.9353 242.938 66.453 245.169 66.453C247.43 66.453 249.405 66.9353 251.093 67.9C252.781 68.8647 254.1 70.2062 255.049 71.9246C255.999 73.6429 256.474 75.6627 256.474 77.984C256.474 80.2752 255.999 82.2799 255.049 83.9983C254.1 85.7166 252.781 87.0506 251.093 88.0002C249.405 88.9498 247.43 89.4246 245.169 89.4246ZM245.169 85.0835C247.189 85.0835 248.809 84.4279 250.03 83.1165C251.251 81.8051 251.861 80.0943 251.861 77.984C251.861 75.8436 251.251 74.1102 250.03 72.7837C248.809 71.4573 247.189 70.7941 245.169 70.7941C243.179 70.7941 241.574 71.4498 240.353 72.7611C239.132 74.0725 238.522 75.7984 238.522 77.9388C238.522 80.0792 239.132 81.8051 240.353 83.1165C241.574 84.4279 243.179 85.0835 245.169 85.0835Z'
              fill='#131313'
              fill-rule='nonzero'
              opacity='1'
              stroke='none'
            />
            <path
              d='M276.228 89.4246C273.967 89.4246 272.008 88.9348 270.35 87.955C268.692 86.9752 267.411 85.6262 266.506 83.9078C265.602 82.1895 265.15 80.1998 265.15 77.9388C265.15 75.6778 265.602 73.6881 266.506 71.9698C267.411 70.2514 268.692 68.9024 270.35 67.9226C272.008 66.9429 273.967 66.453 276.228 66.453C278.369 66.453 280.313 67.0333 282.062 68.1939C283.81 69.3546 285.076 70.8996 285.86 72.829L281.564 74.6378C281.082 73.3716 280.359 72.4145 279.394 71.7663C278.429 71.1182 277.329 70.7941 276.093 70.7941C274.284 70.7941 272.777 71.4196 271.571 72.6707C270.365 73.9218 269.762 75.6778 269.762 77.9388C269.762 80.1998 270.365 81.9558 271.571 83.2069C272.777 84.458 274.284 85.0835 276.093 85.0835C277.329 85.0835 278.429 84.7595 279.394 84.1113C280.359 83.4632 281.082 82.506 281.564 81.2399L285.86 83.0486C285.046 84.978 283.773 86.523 282.039 87.6837C280.306 88.8443 278.369 89.4246 276.228 89.4246Z'
              fill='#131313'
              fill-rule='nonzero'
              opacity='1'
              stroke='none'
            />
            <path
              d='M300.595 88.9724L296.074 88.9724L296.074 66.9052L300.595 66.9052L300.595 88.9724ZM295.395 60.1222C295.395 59.248 295.659 58.532 296.187 57.9743C296.714 57.4165 297.43 57.1377 298.334 57.1377C299.209 57.1377 299.917 57.4165 300.46 57.9743C301.002 58.532 301.274 59.248 301.274 60.1222C301.274 60.9663 301.002 61.6672 300.46 62.2249C299.917 62.7826 299.209 63.0615 298.334 63.0615C297.43 63.0615 296.714 62.7826 296.187 62.2249C295.659 61.6672 295.395 60.9663 295.395 60.1222Z'
              fill='#131313'
              fill-rule='nonzero'
              opacity='1'
              stroke='none'
            />
            <path
              d='M319.581 89.6055C317.863 89.6055 316.386 89.3041 315.15 88.7011C313.914 88.0982 312.972 87.2315 312.324 86.101C311.675 84.9705 311.351 83.6214 311.351 82.0538C311.351 80.6068 311.683 79.318 312.346 78.1875C313.009 77.057 313.959 76.1602 315.195 75.4969C316.431 74.8337 317.893 74.5021 319.581 74.5021C321.692 74.5021 323.387 74.9769 324.669 75.9265C325.95 76.8761 326.847 78.18 327.359 79.838L324.827 79.838L324.827 74.1856C324.827 73.251 324.51 72.3918 323.877 71.608C323.244 70.8242 322.129 70.4323 320.531 70.4323C319.687 70.4323 318.76 70.5303 317.75 70.7262C316.74 70.9222 315.692 71.2613 314.607 71.7437L313.251 68.2618C314.487 67.6588 315.768 67.2066 317.094 66.9052C318.421 66.6037 319.717 66.453 320.983 66.453C322.882 66.453 324.45 66.7997 325.686 67.493C326.922 68.1864 327.842 69.1134 328.444 70.274C329.047 71.4347 329.349 72.7385 329.349 74.1856L329.349 88.9724L326.093 88.9724L324.963 84.9479L327.359 84.2696C326.817 86.0482 325.852 87.3822 324.465 88.2715C323.078 89.1609 321.45 89.6055 319.581 89.6055ZM320.395 85.581C321.722 85.581 322.792 85.272 323.606 84.654C324.42 84.0359 324.827 83.1692 324.827 82.0538C324.827 80.9082 324.42 80.034 323.606 79.4311C322.792 78.8281 321.722 78.5267 320.395 78.5267C319.069 78.5267 317.999 78.8281 317.185 79.4311C316.371 80.034 315.964 80.9082 315.964 82.0538C315.964 83.1692 316.371 84.0359 317.185 84.654C317.999 85.272 319.069 85.581 320.395 85.581Z'
              fill='#131313'
              fill-rule='nonzero'
              opacity='1'
              stroke='none'
            />
            <path
              d='M344.762 89.1985C343.979 89.1985 343.285 89.0101 342.682 88.6333C342.079 88.2565 341.604 87.7063 341.258 86.9828C340.911 86.2593 340.738 85.3699 340.738 84.3148L340.738 58.1778L345.169 58.1778L345.169 82.7321C345.169 83.6667 345.403 84.2997 345.87 84.6313C346.337 84.963 346.873 85.1288 347.476 85.1288L347.476 88.7463C347.084 88.8971 346.662 89.0101 346.209 89.0855C345.757 89.1609 345.275 89.1985 344.762 89.1985Z'
              fill='#131313'
              fill-rule='nonzero'
              opacity='1'
              stroke='none'
            />
          </g>
          <path
            d='M198.096 90.5534C198 90.5977 197.923 90.653 197.864 90.7194C197.805 90.7858 197.76 90.8559 197.731 90.9296C197.701 91.0034 197.687 94.987 197.687 102.88C197.687 110.774 197.694 114.742 197.709 114.787C197.724 114.831 197.768 114.901 197.842 114.997C197.915 115.093 198 115.163 198.096 115.207C198.192 115.251 198.292 115.274 198.395 115.274C198.498 115.274 198.598 115.251 198.694 115.207C198.737 115.187 198.934 115.017 199.286 114.695C199.722 114.296 200.395 113.667 201.305 112.806C202.95 111.249 203.817 110.438 203.905 110.372C203.95 110.338 203.994 110.305 204.038 110.272C204.732 111.88 205.425 113.488 206.119 115.097C207.505 118.313 208.217 119.943 208.254 119.987C208.291 120.032 208.354 120.08 208.442 120.131C208.531 120.183 208.638 120.212 208.763 120.22C208.889 120.227 208.977 120.223 209.029 120.209C209.08 120.194 209.645 119.939 210.722 119.445C211.799 118.951 212.382 118.645 212.47 118.527C212.559 118.409 212.607 118.28 212.614 118.139C212.621 117.999 211.895 116.34 210.434 113.16C209.704 111.57 208.973 109.981 208.243 108.391C209.457 108.288 210.67 108.184 211.884 108.081C214.311 107.874 215.579 107.745 215.69 107.694C215.801 107.642 215.882 107.587 215.934 107.528C215.985 107.469 216.026 107.402 216.055 107.329C216.085 107.255 216.096 107.152 216.088 107.019C216.081 106.886 216.059 106.786 216.022 106.72C215.985 106.654 215.911 106.565 215.801 106.454C215.69 106.344 212.868 103.707 207.336 98.5426C201.803 93.3788 198.978 90.7526 198.86 90.6641C198.742 90.5755 198.609 90.5239 198.461 90.5092C198.314 90.4944 198.192 90.5092 198.096 90.5534Z'
            fill='#000000'
            fill-rule='nonzero'
            opacity='1'
            stroke='#ffffff'
            stroke-linecap='butt'
            stroke-linejoin='round'
            stroke-width='1.61915'
          />
          <path
            d='M97.9577 63.1962L98.8212 57.0865L94.2777 52.9114L100.355 51.8446L102.922 46.2333L105.815 51.6838L111.944 52.3909L107.655 56.8262L108.876 62.8746L103.332 60.1652L97.9577 63.1962Z'
            fill='#000000'
            fill-rule='nonzero'
            opacity='1'
            stroke='none'
          />
          <g opacity='1'>
            <path
              d='M26.8184 116.191C24.6356 116.191 22.9047 115.551 21.6258 114.272C20.3468 112.993 19.7073 111.007 19.7073 108.312L19.7073 91.0714L19.7073 90.7644L20.6793 85.1369L24.8232 85.1369L24.8232 108.414C24.8232 109.369 25.0705 110.086 25.565 110.563C26.0596 111.041 26.682 111.279 27.4324 111.279C28.0122 111.279 28.5238 111.245 28.9671 111.177C29.4105 111.109 29.8028 111.024 30.1438 110.921L30.1438 115.679C29.7004 115.816 29.2144 115.935 28.6858 116.037C28.1571 116.14 27.5347 116.191 26.8184 116.191ZM15.8703 95.4711L15.8703 90.7644L30.1438 90.7644L30.1438 95.4711L15.8703 95.4711Z'
              fill='#ffc804'
              fill-rule='nonzero'
              opacity='1'
              stroke='none'
            />
            <path
              d='M35.976 115.73L35.976 80.8906L41.092 80.8906L41.092 115.73L35.976 115.73ZM52.7052 115.73L52.7052 99.7685C52.7052 97.995 52.3044 96.8012 51.5029 96.1873C50.7014 95.5734 49.755 95.2665 48.6636 95.2665C47.5722 95.2665 46.4637 95.4881 45.3382 95.9315C44.2127 96.3749 43.2065 96.9718 42.3198 97.7221C41.433 98.4725 40.7509 99.3081 40.2734 100.229L39.6595 95.3176C40.6145 94.2262 41.6547 93.3053 42.7802 92.555C43.9057 91.8047 45.0994 91.2334 46.3614 90.8412C47.6233 90.4489 48.9194 90.2528 50.2495 90.2528C52.023 90.2528 53.4214 90.5513 54.4446 91.1481C55.4678 91.745 56.2181 92.5465 56.6956 93.5526C57.1731 94.5587 57.48 95.6928 57.6165 96.9547C57.7529 98.2167 57.8211 99.5127 57.8211 100.843L57.8211 115.73L52.7052 115.73Z'
              fill='#ffc804'
              fill-rule='nonzero'
              opacity='1'
              stroke='none'
            />
            <path
              d='M74.6014 116.242C72.1799 116.242 70.0482 115.705 68.2065 114.63C66.3648 113.556 64.9323 112.047 63.9091 110.103C62.8859 108.159 62.3743 105.891 62.3743 103.299C62.3743 100.672 62.8859 98.3872 63.9091 96.4431C64.9323 94.4991 66.3648 92.9813 68.2065 91.8899C70.0482 90.7985 72.1799 90.2528 74.6014 90.2528C77.0571 90.2528 79.2058 90.7985 81.0475 91.8899C82.8893 92.9813 84.3217 94.4991 85.3449 96.4431C86.3681 98.3872 86.8797 100.672 86.8797 103.299C86.8797 103.537 86.8712 103.785 86.8541 104.04C86.8371 104.296 86.8115 104.526 86.7774 104.731L67.2345 104.731L67.2345 100.331L83.0939 100.331L81.6614 103.299C81.6614 100.706 81.0816 98.5748 79.922 96.9036C78.7624 95.2324 76.9889 94.3967 74.6014 94.3967C72.4868 94.3967 70.7986 95.0703 69.5366 96.4175C68.2747 97.7647 67.6437 99.5297 67.6437 101.713L67.6437 104.373C67.6437 106.658 68.2577 108.474 69.4855 109.821C70.7133 111.169 72.4186 111.842 74.6014 111.842C76.6137 111.842 78.1655 111.416 79.2569 110.563C80.3484 109.71 81.3033 108.653 82.1219 107.391L85.9588 109.796C84.7992 111.944 83.3071 113.556 81.4824 114.63C79.6577 115.705 77.364 116.242 74.6014 116.242Z'
              fill='#ffc804'
              fill-rule='nonzero'
              opacity='1'
              stroke='none'
            />
          </g>
        </g>
      </g>
    </svg>
